X: 10181
M: C
L: 1/8
K: D
V: 1 staves=3
(3ABc |\
d2d>d d2e/d/c/B/ | A2A>A A2f>d | B2g>e c2e>c | d2d>d d2f>d |\
e2 c/d/c/d/ eefe || d2 B/c/B/c/ dded | c>d e/d/c/B/ A2^G2 | A2A>A A2 :|
|:\
V: 2
z2 |\
c2A/B/A/B/ ccdc | B2G/A/G/A/ BBcB | A2FD C2B,2 | C2C>C C2 :|
|:\
V: 3 clef=bass middle=d
z2 |\
d2d>d d2d2 | d2d>d d2z2 | G2G2 A2A2 | d2d>d d2z2 |\
|:\
d2d>d d2d>f | g2a2 d2z2 | d2d2 A2A2 | d2d>d d2z2 :|


